X:13337
T:Polka pique 2
C:trad
A:Massif Central
O:France
M:2/4
L:1/8
Q:1/4=130
K:C
e2c2|d/2e/2d/2c/2 BG|f>e dg|1e/2g/2a/2g/2 ec:|2e/2g/2a/2g/2c2|
|:e/2d/2e/2g/2 f/2g/2f/2e/2|d/2e/2d/2c/2 BG|G/2A/2B/2c/2 d/2e/2f/2g/2|1a/2g/2_f/2g/2 ec:|2a/2g/2f/2d/2c2||
